X: 100313
M: 6/8
L: 1/16
U: S=!/!
K: Gm
V: 1
"Primo"\
f2{a}g2f2 f2e2d2 | c2d2B2 A2B2c2 |\
d2e2d2 (d3edc) | B2G2G2 G4 :|
d2 |\
g6 g2a2b2 | a2f2f2 f2g2a2 |\
g6 g2a2g2 | f2d2d2 (d4=e2) |\
f2g2f2 f2e2d2 | c2d2B2 A2B2c2 |\
d6 d4cd | B2G2G2 G4 :|
|: z2 |\
e2eeee ^c2cccc | d2dddd BFGABc |
(db)agfe (dg)fedc | (Bf)edcB (Ae)dcBA |\
|: vgua |\
(bB)bag^f g2a2b2 | aAagfe dcBAG^F |\
gdecdB cABGA^F | G2G,2G,2 G,4 :|
|: vgug |\
g2G2A2 B4cB | AF=EFGA Bcdef2 |\
g6 g3(bag) | f2d2d2 (d4=e2) |
f2F2(f2 e2)E2(e2 | d2)D2(d2 c2)(B2c2) |\
fbagfe dgfedc | B2G2G2 G4 :|
d2d'2d'2 c2c'2c'2 | B2b2b2 (A2a2)a2 |\
(ba^g=g^f=f =e_edcBA) | B2G2G2 "_Fine."G4 |]
V: 2
"Secundo"\
d2e2d2 d2c2B2 | A2B2G2 F2G2A2 | B2c2B2 (B3cBA) | G2D2B,2 G,4 :|
z2 |\
d2e2d2 d2c2B2 | A2B2G2 F2G2A2 | B6 B4AB | G2D2B,2 G,4 :|
|: z2 |\
[G2B,2]z2[G2B,2] [B2G2]z2[B2G2] | [A2^F2]z2[A2F2] [B2G2]z2[A2F2] |\
[E2C2][E2C2][E2C2] G2G2G2 | ^F2F2F2 D4GA |\
(Bg)fedc (Be)dcBA | (Gd)cBAG ^F2F2D2 |\
|: uD2 |\
[G2B,2]z2[G2B,2] [B2G2]z2[B2G2] | [A2^F2]z2[A2F2] [B2G2]z2[B2G2] |\
d2d2d2 c2c2c2 | B2B2B2 A2A2A2 |\
|: uD2 |\
[d2F2]z2[d2F2] [c2E2]z2[c2E2] | [B2D2]z2[c2D2] [A4F4]z2 |\
z2 |\
[G2B,2]z2[G2B,2] [G4B,4]z2 | [F2A,2]z2[F2A,2] [F4A,4]z2 |\
[G2B,2]z2[G2B,2] [G4B,4]z2 | [D6B,6] [F6A,6] |\
[d2D2]z2[d2D2] [c2E2]z2[c2E2] | [B2D2]z2[B2D2] [A4F4]z2 |\


